X: 51
M:6/8
L:1/8
K:Em
u(B/A/)|\
vGEE EGA | BAB BdB | AFD DFA | AFA ABc |
|:ue|\
veBe efg | fdd (d2"4".e) | dAd d"4"ed | BAA A2.e |
eBe efg | agf gfe | dBB BAB | GEE E2:|


